X: 95
T:Molly From Longford (#291)
M:4/4
L:1/8
S:Patsy Touhey manuscript
R:Reel
K:G
BA||:GE~EE GEDE|GE~EE BcBA|GE~EE GEDB|cABG A2 BA:||
Beec d2 cd|eAAF GE~EE|Beec d2 cd|eAAG A3 c|
Beec d2 cd|eAAF GE~EE|Beed Beed|cABc d2 BA||
%
% "Molly" is a variant of "Pay the Girl Her Fourpence", No. 804
% in O'Neill's Dance Music of Ireland.

